X:16
T:Hey ding a ding THO4.016
M:12/8
L:1/8
Z:vmp. Peter Dunk 2010/11.from a transcription by Fynn Titford-Mock 2007
B:Thompson's Compleat Collection of 200 Favourite Country Dances Volume IV.
Q:3/8=100
K:D
d2 f e2 g faf d2 A|d2 f eag f3 e3|b2 g ebg a2 f daf|egf edc d3-d3:|
F2 A d2 c BdB A3|efg afd c3e3|afd bge afd ecA|Bcd edc d3-d3:|
